logos/harness.svg

<?xml version="1.0" encoding="UTF-8"?>
<svg width="512px" height="111px" viewBox="0 0 512 111" version="1.1" xmlns="http://www.w3.org/2000/svg" preserveAspectRatio="xMidYMid">
    <title>Harness</title>
    <g>
        <path d="M94.8639608,57.4953148 C94.1822327,59.5881151 93.0775925,61.5204033 91.6176243,63.1731396 L83.2830312,71.4613966 L67.1660371,55.4345145 L83.2830312,39.4078884 L91.6176243,47.5356335 C93.0778485,48.6988977 94.1635447,50.2620339 94.7403127,52.0320181 C95.3173368,53.8020023 95.3603448,55.7012666 94.8639608,57.4953148 L94.8639608,57.4953148 Z M53.4206273,94.3339756 C51.3662271,93.6297195 49.4779708,92.5156074 47.8718266,91.0597352 L39.5602735,82.7945181 L55.6770116,66.767892 L71.7940057,82.7945181 L63.4361167,91.1055592 C62.2664525,92.5575914 60.6943563,93.6371435 58.9146441,94.2108396 C57.1346758,94.7845357 55.2246596,94.8272877 53.4206273,94.3339756 L53.4206273,94.3339756 Z M16.3520785,53.1220662 C17.0445586,51.024146 18.1653267,49.0910897 19.6444949,47.4442415 L27.979088,39.1787684 L44.0960821,55.2056505 L27.979088,71.2325326 L19.6214549,62.9214915 C18.1599507,61.7533634 17.0722066,60.1871552 16.4915985,58.4143549 C15.9109904,56.6415547 15.8626064,54.7389625 16.3520785,52.9390262 L16.3520785,53.1220662 Z M57.7954119,16.1003654 C59.9150922,16.7815815 61.8681164,17.8969736 63.5282767,19.3743498 L71.8400857,27.6395669 L55.7230916,43.666449 L39.6063535,27.6395669 L47.8718266,19.5576459 C49.0417468,18.1053577 50.613843,17.0260615 52.3935552,16.4521094 C54.1735234,15.8784134 56.0832837,15.8359174 57.8873159,16.3292294 L57.7954119,16.1003654 Z M103.12969,36.202512 L74.9021022,8.22426837 C71.5963737,5.15124397 67.6726612,2.81012366 63.3900366,1.35578747 C53.7890114,-1.82680495 44.2571061,0.645899376 36.5210411,8.22426837 L8.27066943,36.202512 C5.18126103,39.4905765 2.82734072,43.392273 1.36327653,47.6500655 C-1.83697989,57.1975868 0.649548434,66.699028 8.27066943,74.392085 L36.3600171,102.438937 C39.6511535,105.563673 43.5761461,107.952409 47.8718266,109.44489 C50.490963,110.324762 53.2350273,110.780698 55.9993157,110.795546 C59.5275081,110.724634 63.0050126,109.94793 66.224725,108.512281 C69.4444374,107.076633 72.3408218,105.010969 74.7410781,102.438937 L103.12969,74.483477 C106.261338,71.2069326 108.655451,67.3044681 110.152027,63.0359235 C113.352283,53.4884023 110.842715,43.986961 103.12969,36.316944" fill="#00ADE5"></path>
        <path d="M496.839821,52.9390262 L510.656143,52.9390262 C510.474383,48.3338416 508.579983,43.959569 505.336462,40.6671526 C500.961422,36.08808 493.708941,33.7984157 486.57166,33.7984157 C479.987339,33.5447197 473.531018,35.658 468.382858,39.7514405 C466.414217,41.3860007 464.839817,43.441169 463.779977,45.7641133 C462.720137,48.0868016 462.200457,50.6176179 462.259337,53.1681462 C462.325897,57.0206908 463.741577,60.7293632 466.263177,63.6551876 C468.784778,66.580756 472.253578,68.5399243 476.073099,69.1947723 C481.369739,70.3396045 487.35502,70.6829005 492.651661,71.4844366 C494.272141,71.5668687 495.797901,72.2670287 496.911501,73.4395089 C498.027662,74.6122451 498.644622,76.1669333 498.636942,77.7805015 C498.636942,84.3056863 491.269261,85.3360865 486.43342,85.3360865 C483.18222,85.5885025 479.948939,84.6525664 477.340299,82.7031261 C475.740299,81.2956379 474.670218,79.3907417 474.301578,77.2997334 L460.738697,77.2997334 C461.294217,81.995542 463.506057,86.3437026 466.979977,89.571607 C472.276618,94.2827756 479.216779,96.7478 486.31822,96.4403439 C494.492301,96.4403439 501.975182,94.3567596 506.811023,89.571607 C508.526223,87.8648548 509.870223,85.8258145 510.763663,83.5809502 C511.654543,81.3363419 512.071823,78.9332696 511.989903,76.5212373 C511.989903,67.1342281 505.083022,61.1814593 495.644301,59.6933311 C489.77166,58.777363 488.27662,58.662931 482.86478,57.9760829 C479.641739,57.5180988 475.957899,56.2588347 475.957899,52.0002741 C475.993739,50.6107059 476.454539,49.2649137 477.276299,48.1408176 C478.098059,47.0167214 479.244939,46.1670573 480.563339,45.7042093 C482.544779,44.9620652 484.66446,44.6497451 486.77902,44.7882412 C489.6411,44.7040171 492.431501,45.6837293 494.607501,47.5356335 C495.995021,49.0017457 496.791181,50.925842 496.839821,52.9390262 Z M420.562051,51.7714101 C420.597891,50.3818419 421.058691,49.0360497 421.880452,47.9119536 C422.702212,46.7876014 423.849092,45.9379373 425.167492,45.4750892 C427.148932,44.7332011 429.268613,44.4208811 431.383173,44.5593771 C434.250373,44.4846251 437.045894,45.4628012 439.234694,47.3067695 C440.701574,48.8199857 441.525894,50.8370099 441.536134,52.9390262 L455.352456,52.9390262 C455.180936,48.3364016 453.291656,43.961873 450.055815,40.6671526 C445.680775,36.08808 438.543494,33.7984157 431.267973,33.7984157 C424.683652,33.5447197 418.227331,35.658 413.07917,39.7514405 C411.14125,41.3816487 409.59245,43.421969 408.55053,45.7236653 C407.50605,48.0251056 406.99149,50.5292979 407.04781,53.0534582 C407.10925,56.9075387 408.52493,60.6185152 411.04653,63.5451076 C413.57069,66.471444 417.042051,68.4295882 420.861571,69.0803403 C426.158212,70.2251725 432.143493,70.5684685 437.463174,71.3697486 C439.083654,71.4521806 440.609414,72.1525967 441.723014,73.3250769 C442.839174,74.497813 443.456134,76.0525012 443.448454,77.6660695 C443.448454,84.1912543 436.057733,85.2216544 431.221893,85.2216544 C427.932292,85.5027425 424.650372,84.5650144 422.013572,82.5886941 C420.423811,81.1742939 419.353731,79.2727257 418.974851,77.1853014 L405.411969,77.1853014 C406.005889,81.836822 408.21261,86.1368546 411.65325,89.342743 C416.949891,94.0539116 423.890052,96.5189359 430.991493,96.2112239 C439.165574,96.2112239 446.671495,94.1278956 451.507335,89.342743 C453.217416,87.6326628 454.561416,85.5931105 455.449736,83.3490142 C456.340616,81.1049179 456.763016,78.7036376 456.686216,76.2923733 C456.686216,66.905364 449.779335,60.9523393 440.317574,59.4642111 C434.444933,58.548499 432.949893,58.4340669 427.538052,57.7472188 C424.315012,57.2892348 420.631171,56.0299706 420.631171,51.7714101 L420.562051,51.7714101 Z M401.290369,65.5086279 C401.886849,58.2172349 400.066689,50.932498 396.111488,44.7654572 C393.697408,41.2428967 390.425727,38.3867043 386.601087,36.4646561 C382.773886,34.5426078 378.521726,33.6174237 374.238845,33.7756317 C370.700925,33.6745117 367.178364,34.2924958 363.888764,35.5914399 C360.599164,36.8906401 357.609083,38.8436644 355.105403,41.3312167 C349.347962,47.1692975 346.470522,55.6636346 346.470522,65.1650758 C346.296442,69.5483084 347.023482,73.920533 348.608122,78.0144855 C350.192762,82.108694 352.599162,85.8386145 355.681403,88.9764069 C358.182523,91.3889513 361.141884,93.2813035 364.387964,94.5433837 C367.634044,95.8052078 371.100285,96.4111599 374.584445,96.3259119 C378.355326,96.4877039 382.115966,95.8208238 385.597567,94.3723756 C389.079167,92.9239275 392.197248,90.7297512 394.729088,87.9460068 C397.350528,84.7833824 399.096449,80.9953499 399.795329,76.9564374 L385.979007,76.9564374 C385.497727,78.8641496 384.504447,80.6054618 383.101566,81.993238 C381.931646,83.0605022 380.546686,83.8674143 379.036286,84.3609823 C377.528446,84.8542944 375.931006,85.0229984 374.354045,84.8553184 C371.028605,84.8432864 367.843964,83.5266782 365.488764,81.1919579 C363.998844,79.6434137 362.841724,77.8099415 362.083964,75.8026452 C361.328764,73.7953489 360.990844,71.6564687 361.090684,69.5152844 L401.059969,69.5152844 C401.059969,68.2560202 401.059969,65.5086279 401.059969,65.5086279 L401.290369,65.5086279 Z M386.670207,59.097875 L360.998524,59.097875 C360.921724,55.7348026 362.019964,52.4490422 364.106364,49.8025138 C365.301884,48.3154096 366.830204,47.1268015 368.568445,46.3316654 C370.309245,45.5365293 372.208765,45.1571372 374.123645,45.2234412 C375.795326,45.1338412 377.469566,45.3931692 379.036286,45.9845293 C380.600446,46.5758894 382.026366,47.4864815 383.216766,48.6576817 C385.692287,51.570706 387.003007,55.2862905 386.900607,59.097875 L386.670207,59.097875 Z M325.219959,94.8147437 L339.632761,94.8147437 L339.632761,54.9995705 C339.632761,42.6132649 332.14988,33.6839837 319.349878,33.6839837 C315.860598,33.5242397 312.391797,34.2878878 309.296757,35.896848 C306.204276,37.5055522 303.593076,39.9024805 301.734516,42.8421289 L300.700276,35.1723679 L288.611954,35.1723679 L288.611954,94.7003117 L303.001716,94.7003117 L303.001716,70.4540365 C303.001716,65.4169799 303.001716,59.235347 304.957556,54.4271544 C306.915957,49.6192178 310.254197,46.8487854 315.320438,46.8487854 C322.918519,46.8487854 325.219959,51.084562 325.219959,58.0905149 L325.219959,94.8147437 Z M279.654513,47.9250096 C280.425073,47.9344816 281.193073,47.9879856 281.958513,48.0852656 L281.958513,34.5083038 C281.336433,34.5083038 280.714353,34.3708318 280.092273,34.3708318 C273.070192,34.3708318 265.932911,37.2329122 263.147631,44.1013931 L261.903471,35.1723679 L249.676909,35.1723679 L249.676909,94.7003117 L264.297071,94.7003117 L264.297071,64.7301318 C264.297071,55.1140025 269.593712,47.8791856 279.723633,47.8791856 L279.654513,47.9250096 Z M234.368107,95.6618478 C236.843627,95.7409518 239.301228,95.1892717 241.505388,94.0592876 L241.505388,83.5044062 C240.901228,83.6457182 240.281708,83.7225182 239.662188,83.7332702 C237.360747,83.7332702 236.323947,82.7031261 236.323947,79.9557338 L236.323947,57.8616509 C236.503147,53.7756343 235.916907,49.6919218 234.595947,45.8186413 C231.119467,36.8893601 222.371945,33.6839837 212.126824,33.6839837 C198.771302,33.6839837 188.065637,39.6367525 187.236709,53.0534582 L201.190503,53.0534582 C201.533543,47.5356335 205.447783,44.5593771 212.126824,44.5593771 C220.298345,44.5593771 222.256745,48.3371696 222.256745,53.9694264 L222.256745,57.6325308 L204.643943,58.891795 C193.130854,59.6933311 184.358756,66.218516 184.358756,77.5516374 C184.358756,87.2821987 191.749477,96.2342639 206.023783,96.2342639 C214.543464,96.2342639 221.450345,92.0901353 224.212586,87.2821987 C224.468586,89.720855 225.676906,91.9631593 227.573866,93.5291115 C229.470826,95.0950637 231.907947,95.8605038 234.368107,95.6618478 Z M222.256745,71.0264526 C222.256745,79.8410457 215.925865,84.7636704 206.945383,84.7636704 C205.890663,84.8509664 204.828263,84.7257824 203.824743,84.3960543 C202.818663,84.0660703 201.891943,83.5379422 201.095783,82.8434141 C200.299623,82.148886 199.654502,81.3020379 199.196262,80.3533018 C198.738022,79.4048217 198.474342,78.3739095 198.425702,77.3225174 C198.425702,72.5145808 202.685543,69.8816204 207.060583,69.5383244 L222.256745,68.3934922 L222.256745,71.0264526 Z M163.68317,94.7230957 L178.211428,94.7230957 L178.211428,54.6562744 C178.211428,42.2927528 170.659427,33.1804316 157.765985,33.1804316 C154.589281,33.1141276 151.441504,33.7925277 148.577632,35.1608479 C145.713759,36.5291681 143.213919,38.5487523 141.280863,41.0562727 L141.280863,11.2924288 L126.752605,11.2924288 L126.752605,94.7230957 L141.280863,94.7230957 L141.280863,63.0817475 C141.280863,55.6864186 144.987743,46.4596654 153.71376,46.4596654 C161.357665,46.4596654 163.68317,50.7182259 163.68317,57.6555708 L163.68317,94.7230957 Z" fill="#07182B"></path>
    </g>
</svg>

<svg preserveAspectRatio="xMidYMid" viewBox="0 0 512 111" xmlns="http://www.w3.org/2000/svg">
  <path fill="#00ADE5" d="M94.864 57.495a16.116 16.116 0 0 1-3.246 5.678l-8.335 8.288-16.117-16.026 16.117-16.027 8.335 8.128a9.522 9.522 0 0 1 3.122 4.496c.577 1.77.62 3.67.124 5.463ZM53.421 94.334a15.975 15.975 0 0 1-5.55-3.274l-8.31-8.265 16.116-16.027 16.117 16.027-8.358 8.31a9.579 9.579 0 0 1-4.521 3.106 9.632 9.632 0 0 1-5.494.123ZM16.352 53.122a16.005 16.005 0 0 1 3.292-5.678l8.335-8.265 16.117 16.027L27.98 71.233l-8.358-8.312a9.594 9.594 0 0 1-3.13-4.507 9.542 9.542 0 0 1-.139-5.475v.183ZM57.795 16.1a15.977 15.977 0 0 1 5.733 3.274l8.312 8.266-16.117 16.026L39.606 27.64l8.266-8.082a9.581 9.581 0 0 1 4.522-3.106 9.631 9.631 0 0 1 5.493-.123l-.092-.229Zm45.335 20.103L74.902 8.224A32.038 32.038 0 0 0 63.39 1.356c-9.601-3.183-19.133-.71-26.869 6.868L8.271 36.203A31.838 31.838 0 0 0 1.363 47.65c-3.2 9.548-.713 19.05 6.908 26.742L36.36 102.44a31.944 31.944 0 0 0 11.512 7.006 25.93 25.93 0 0 0 8.127 1.35 26.414 26.414 0 0 0 10.226-2.283 26.295 26.295 0 0 0 8.516-6.073l28.389-27.956a31.795 31.795 0 0 0 7.022-11.447c3.2-9.548.69-19.049-7.022-26.72"/>
  <path fill="#07182B" d="M496.84 52.939h13.816a18.525 18.525 0 0 0-5.32-12.272c-4.375-4.579-11.627-6.869-18.764-6.869a27.526 27.526 0 0 0-18.19 5.953 16.978 16.978 0 0 0-4.602 6.013 16.895 16.895 0 0 0-1.52 7.404 16.499 16.499 0 0 0 4.003 10.487 16.666 16.666 0 0 0 9.81 5.54c5.297 1.145 11.282 1.488 16.579 2.29a6.317 6.317 0 0 1 4.26 1.955 6.252 6.252 0 0 1 1.725 4.34c0 6.526-7.368 7.556-12.204 7.556a13.454 13.454 0 0 1-9.093-2.633 9.36 9.36 0 0 1-3.038-5.403h-13.563a19.954 19.954 0 0 0 6.241 12.272 27.322 27.322 0 0 0 19.338 6.868c8.174 0 15.657-2.083 20.493-6.868a17.665 17.665 0 0 0 3.953-5.991 17.523 17.523 0 0 0 1.226-7.06c0-9.387-6.907-15.34-16.346-16.828-5.872-.916-7.367-1.03-12.78-1.717-3.222-.458-6.906-1.717-6.906-5.976a6.84 6.84 0 0 1 1.318-3.86 6.903 6.903 0 0 1 3.287-2.436 14.94 14.94 0 0 1 6.216-.916 11.555 11.555 0 0 1 7.829 2.748 8.149 8.149 0 0 1 2.232 5.403Zm-76.278-1.168a6.84 6.84 0 0 1 1.318-3.859 6.902 6.902 0 0 1 3.287-2.437 14.945 14.945 0 0 1 6.216-.916 11.715 11.715 0 0 1 7.852 2.748 8.149 8.149 0 0 1 2.301 5.632h13.816a18.499 18.499 0 0 0-5.296-12.272c-4.375-4.579-11.513-6.869-18.788-6.869a27.526 27.526 0 0 0-18.189 5.953 16.934 16.934 0 0 0-4.528 5.973 16.826 16.826 0 0 0-1.503 7.33 16.476 16.476 0 0 0 3.999 10.491 16.655 16.655 0 0 0 9.815 5.535c5.296 1.145 11.281 1.488 16.601 2.29a6.317 6.317 0 0 1 4.26 1.955 6.252 6.252 0 0 1 1.725 4.341c0 6.525-7.39 7.556-12.226 7.556a13.452 13.452 0 0 1-9.208-2.633 9.507 9.507 0 0 1-3.04-5.404h-13.562a20.097 20.097 0 0 0 6.241 12.158 27.32 27.32 0 0 0 19.338 6.868c8.175 0 15.68-2.083 20.516-6.868a17.69 17.69 0 0 0 5.18-13.05c0-9.388-6.908-15.34-16.37-16.829-5.872-.916-7.367-1.03-12.779-1.717-3.223-.458-6.907-1.717-6.907-5.976h-.069ZM401.29 65.51a33.377 33.377 0 0 0-5.179-20.744 25.298 25.298 0 0 0-9.51-8.3 25.452 25.452 0 0 0-12.362-2.69 26.152 26.152 0 0 0-10.35 1.816 26.025 26.025 0 0 0-8.784 5.74c-5.757 5.838-8.634 14.333-8.634 23.834a32.067 32.067 0 0 0 2.137 12.85 32.26 32.26 0 0 0 7.073 10.961 26.23 26.23 0 0 0 8.707 5.567 26.365 26.365 0 0 0 10.196 1.783 25.79 25.79 0 0 0 11.014-1.954 25.671 25.671 0 0 0 9.131-6.426 23.5 23.5 0 0 0 5.066-10.99H385.98a10.799 10.799 0 0 1-2.877 5.037 11.243 11.243 0 0 1-8.748 2.862 12.657 12.657 0 0 1-8.865-3.663 15.768 15.768 0 0 1-4.398-11.677h39.969V65.51h.23Zm-14.62-6.411H361a14.479 14.479 0 0 1 3.107-9.295 12.278 12.278 0 0 1 4.462-3.471 12.335 12.335 0 0 1 5.556-1.109c1.671-.09 3.346.17 4.912.762a12.027 12.027 0 0 1 4.18 2.673 15.477 15.477 0 0 1 3.685 10.44h-.23Zm-61.45 35.717h14.413V55c0-12.387-7.483-21.316-20.283-21.316-3.49-.16-6.958.604-10.053 2.213a19.703 19.703 0 0 0-7.562 6.945l-1.035-7.67h-12.088V94.7h14.39V70.454c0-5.037 0-11.219 1.956-16.027 1.958-4.808 5.296-7.578 10.362-7.578 7.599 0 9.9 4.236 9.9 11.242v36.724Zm-45.565-46.89c.77.01 1.538.063 2.304.16V34.508c-.623 0-1.245-.137-1.867-.137-7.022 0-14.16 2.862-16.944 9.73l-1.245-8.929h-12.226V94.7h14.62V64.73c0-9.616 5.297-16.85 15.427-16.85l-.07.045Zm-45.287 47.737a14.625 14.625 0 0 0 7.137-1.603V83.504a8.772 8.772 0 0 1-1.843.23c-2.301 0-3.338-1.03-3.338-3.778V57.862a32.83 32.83 0 0 0-1.728-12.043c-3.477-8.93-12.224-12.135-22.47-12.135-13.355 0-24.06 5.953-24.89 19.37h13.955c.343-5.518 4.257-8.495 10.936-8.495 8.171 0 10.13 3.778 10.13 9.41v3.664l-17.613 1.259c-11.513.801-20.285 7.327-20.285 18.66 0 9.73 7.39 18.682 21.665 18.682 8.52 0 15.426-4.144 18.189-8.952a9.374 9.374 0 0 0 3.36 6.247 9.473 9.473 0 0 0 6.795 2.133Zm-12.111-24.636c0 8.815-6.331 13.738-15.312 13.738a7.912 7.912 0 0 1-5.85-1.92 7.812 7.812 0 0 1-2.67-5.521c0-4.808 4.26-7.441 8.636-7.785l15.196-1.145v2.633Zm-58.574 23.697h14.528V54.656c0-12.363-7.552-21.476-20.445-21.476a20.332 20.332 0 0 0-9.188 1.98 20.215 20.215 0 0 0-7.297 5.896V11.292h-14.528v83.431h14.528V63.082c0-7.396 3.707-16.622 12.433-16.622 7.644 0 9.97 4.258 9.97 11.196v37.067Z"/>
</svg>
